X:5049
T:Grandpa Kennedy's Hornpipe
M:4/4
R:Hornpipe
L:1/8
C:Aidan Crossey
K:G
|:Bc|d2 g2 gfga|g2 d2 d2 Bc|d2 g2 gfga|g4 z2 Bc|
d2 g2 gfga|bagf g2 d2|ecAF DFAc|fdcD G2:||
|:Bc|d2 G2 G2 AB|cdBc A2 Bc|d2 G2 G2 AG|=F4 z2 Bc|
d2 G2 G2 AB|cdBc A2 Bc|dgfe dcBA|G2 B2 G2:||
